; generated by PrusaSlicer 2.4.2

; 

; external perimeters extrusion width = 0.45mm
; perimeters extrusion width = 0.45mm
; infill extrusion width = 0.45mm
; solid infill extrusion width = 0.45mm
; top infill extrusion width = 0.40mm
; first layer extrusion width = 0.42mm

M73 P0 R27
M73 Q0 S27
M201 X1000 Y1000 Z200 E5000 ; sets maximum accelerations, mm/sec^2
M203 X200 Y200 Z12 E120 ; sets maximum feedrates, mm / sec
M204 P1250 R1250 T1250 ; sets acceleration (P, T) and retract acceleration (R), mm/sec^2
M205 X8.00 Y8.00 Z0.40 E4.50 ; sets the jerk limits, mm/sec
M205 S0 T0 ; sets the minimum extruding and travel feed rate, mm/sec
M107
;TYPE:Custom
M862.3 P "MK3S" ; printer model check
M862.1 P0.4 ; nozzle diameter check
M115 U3.10.1 ; tell printer latest fw version
G90 ; use absolute coordinates
M83 ; extruder relative mode
M104 S230 ; set extruder temp
M140 S85 ; set bed temp
M190 S85 ; wait for bed temp
M109 S230 ; wait for extruder temp
G28 W ; home all without mesh bed level
G80 ; mesh bed leveling
G1 Z0.2 F720
G1 Y-3 F1000 ; go outside print area
G92 E0
G1 X60 E9 F1000 ; intro line
G1 X100 E12.5 F1000 ; intro line
G92 E0
M221 S95

; Don't change E values below. Excessive value can damage the printer.
M907 E430 ; set extruder motor current
G21 ; set units to millimeters
G90 ; use absolute coordinates
M83 ; use relative distances for extrusion
M900 K0.08 ; Filament gcode LA 1.5
M900 K45 ; Filament gcode LA 1.0
M107
;LAYER_CHANGE
;Z:0.2
;HEIGHT:0.2
;BEFORE_LAYER_CHANGE
G92 E0.0
;0.2


G1 E-1 F2100
G1 Z.2 F720
;AFTER_LAYER_CHANGE
;0.2
G1 Z.4
G1 X119.16 Y78.595 F10800
G1 Z.2 F720
G1 E1 F2100
M204 S800
;TYPE:Skirt/Brim
;WIDTH:0.42
G1 F1200
G1 X119.507 Y78.172 E.01715
G1 X120.424 Y77.45 E.03658
G1 X121.502 Y77.027 E.03633
G1 X122.389 Y76.923 E.02799
G1 X129.2 Y76.923 E.21355
G1 X130.507 Y77.314 E.04278
G1 X131.383 Y78.36 E.04278
G1 X131.577 Y79.3 E.03009
G1 X131.577 Y130.7 E1.61161
G1 X131.185 Y132.007 E.04278
G1 X130.14 Y132.883 E.04278
G1 X129.2 Y133.077 E.03008
G1 X122.4 Y133.077 E.21321
G1 X121.739 Y133.021 E.0208
G1 X121.135 Y132.869 E.01953
G1 X120.424 Y132.55 E.02444
G1 X119.507 Y131.828 E.03658
G1 X119.16 Y131.405 E.01715
G1 X118.79 Y130.765 E.02318
G1 X118.562 Y129.749 E.03266
G1 X118.562 Y80.251 E1.55195
G1 X118.79 Y79.235 E.03266
G1 X119.13 Y78.647 E.0213
M204 S1000
; printing object nut.stl id:0 copy 0
;WIPE_START
G1 F8640
G1 X119.507 Y78.172 E-.13998
G1 X120.424 Y77.45 E-.26941
G1 X121.502 Y77.027 E-.26754
G1 X122.389 Y76.923 E-.2061
G1 X122.679 Y76.923 E-.06696
;WIPE_END
G1 E-.05 F2100
G1 Z.4 F720
G1 X122.378 Y80.471 F10800
G1 Z.2 F720
G1 E1 F2100
M204 S800
;TYPE:Perimeter
G1 F1200
G1 X128.036 Y80.465 E.1774
G1 X128.036 Y129.535 E1.53855
G1 X122.378 Y129.529 E.1774
M73 P1 R27
M73 Q1 S27
G1 X122.378 Y126.588 E.09222
G1 X122.498 Y126.564 E.00383
G1 X122.944 Y126.353 E.01548
G1 X123.259 Y126.093 E.01281
G1 X123.553 Y125.697 E.01547
G1 X123.709 Y125.319 E.01281
G1 X123.784 Y124.815 E.01598
G1 X123.722 Y124.348 E.01475
G1 X123.561 Y123.928 E.01413
G1 X123.259 Y123.521 E.01586
G1 X122.944 Y123.262 E.01281
G1 X122.498 Y123.051 E.01548
G1 X122.378 Y123.027 E.00383
G1 X122.378 Y118.481 E.14254
G1 X122.559 Y118.445 E.00578
G1 X122.893 Y118.306 E.01136
G1 X123.263 Y118.032 E.01443
G1 X123.508 Y117.733 E.01211
G1 X123.714 Y117.295 E.01517
G1 X123.789 Y116.793 E.01593
G1 X123.714 Y116.29 E.01593
G1 X123.497 Y115.831 E.01593
G1 X123.172 Y115.472 E.01518
G1 X122.871 Y115.271 E.01136
G1 X122.559 Y115.141 E.01061
G1 X122.378 Y115.105 E.00578
G1 X122.378 Y110.502 E.14432
G1 X122.611 Y110.456 E.00746
G1 X122.911 Y110.331 E.01018
G1 X123.201 Y110.137 E.01093
G1 X123.512 Y109.794 E.01454
G1 X123.72 Y109.353 E.01529
G1 X123.792 Y108.871 E.01528
G1 X123.72 Y108.388 E.01528
G1 X123.512 Y107.948 E.01529
G1 X123.201 Y107.604 E.01453
G1 X122.911 Y107.41 E.01093
G1 X122.611 Y107.286 E.01018
G1 X122.378 Y107.239 E.00746
G1 X122.378 Y102.653 E.1438
G1 X122.525 Y102.623 E.00472
G1 X122.847 Y102.49 E.01093
G1 X123.157 Y102.283 E.01167
G1 X123.492 Y101.913 E.01564
G1 X123.715 Y101.44 E.0164
G1 X123.792 Y100.923 E.01639
G1 X123.715 Y100.406 E.01639
G1 X123.492 Y99.933 E.0164
G1 X123.157 Y99.563 E.01564
G1 X122.847 Y99.356 E.01167
G1 X122.525 Y99.223 E.01092
G1 X122.378 Y99.193 E.00472
G1 X122.378 Y94.612 E.14363
G1 X122.595 Y94.569 E.00693
G1 X122.898 Y94.443 E.0103
G1 X123.191 Y94.247 E.01105
G1 X123.506 Y93.899 E.01471
G1 X123.717 Y93.453 E.01546
G1 X123.789 Y92.966 E.01546
G1 X123.717 Y92.478 E.01546
G1 X123.506 Y92.032 E.01546
G1 X123.191 Y91.684 E.01471
G1 X122.898 Y91.488 E.01105
G1 X122.595 Y91.363 E.0103
G1 X122.378 Y91.319 E.00693
G1 X122.378 Y86.692 E.14509
G1 X122.78 Y86.591 E.01299
G1 X123.169 Y86.357 E.01425
G1 X123.428 Y86.098 E.01149
G1 X123.662 Y85.708 E.01424
G1 X123.778 Y85.244 E.01499
G1 X123.754 Y84.767 E.01499
G1 X123.593 Y84.317 E.01499
G1 X123.309 Y83.932 E.015
G1 X122.944 Y83.661 E.01425
G1 X122.627 Y83.53 E.01074
G1 X122.378 Y83.48 E.00798
G1 X122.378 Y80.531 E.09248
M204 S1000
G1 X122.001 Y80.2 F10800
M204 S800
G1 F1200
G1 X122.151 Y80.128 E.00521
G1 X122.321 Y80.094 E.00544
G1 X128.413 Y80.088 E.19101
G1 X128.413 Y129.912 E1.56222
G1 X122.321 Y129.906 E.19101
G1 X122.151 Y129.872 E.00544
G1 X122.001 Y129.8 E.00521
G1 X122.001 Y126.262 E.11094
G1 X122.378 Y126.203 E.01198
G1 X122.74 Y126.032 E.01256
G1 X122.984 Y125.831 E.0099
G1 X123.223 Y125.509 E.01256
G1 X123.343 Y125.218 E.00989
G1 X123.403 Y124.812 E.01287
G1 X123.354 Y124.442 E.01169
G1 X123.227 Y124.111 E.01112
G1 X122.984 Y123.783 E.01279
G1 X122.74 Y123.583 E.0099
G1 X122.378 Y123.411 E.01256
G1 X122.001 Y123.352 E.01198
G1 X122.001 Y118.134 E.16361
G1 X122.191 Y118.134 E.00596
G1 X122.449 Y118.082 E.00824
G1 X122.706 Y117.975 E.00874
G1 X123.001 Y117.757 E.01151
G1 X123.187 Y117.53 E.00919
G1 X123.35 Y117.185 E.01196
G1 X123.408 Y116.793 E.01242
G1 X123.35 Y116.401 E.01242
G1 X123.18 Y116.043 E.01242
G1 X122.924 Y115.76 E.01197
G1 X122.693 Y115.605 E.00874
G1 X122.449 Y115.504 E.00828
G1 X122.191 Y115.452 E.00824
G1 X122.001 Y115.451 E.00596
G1 X122.001 Y110.143 E.16645
G1 X122.256 Y110.142 E.00802
M73 P1 R26
G1 X122.501 Y110.093 E.00782
G1 X122.732 Y109.997 E.00785
G1 X122.953 Y109.85 E.00831
G1 X123.195 Y109.582 E.01132
G1 X123.355 Y109.242 E.01178
G1 X123.41 Y108.871 E.01178
G1 X123.355 Y108.499 E.01178
G1 X123.195 Y108.159 E.01178
G1 X122.953 Y107.892 E.01132
G1 X122.732 Y107.744 E.00831
G1 X122.501 Y107.648 E.00785
G1 X122.256 Y107.6 E.00782
G1 X122.001 Y107.599 E.00802
G1 X122.001 Y102.315 E.16566
G1 X122.148 Y102.314 E.00462
G1 X122.415 Y102.261 E.00854
G1 X122.668 Y102.156 E.00859
G1 X122.908 Y101.995 E.00905
G1 X123.174 Y101.701 E.01243
G1 X123.35 Y101.33 E.01289
G1 X123.41 Y100.923 E.01289
G1 X123.35 Y100.516 E.01289
G1 X123.174 Y100.145 E.01289
G1 X122.908 Y99.851 E.01243
G1 X122.668 Y99.69 E.00905
G1 X122.415 Y99.585 E.00859
G1 X122.148 Y99.532 E.00854
G1 X122.001 Y99.531 E.00462
G1 X122.001 Y94.257 E.16537
G1 X122.236 Y94.256 E.00739
G1 X122.485 Y94.206 E.00793
G1 X122.719 Y94.109 E.00797
G1 X122.943 Y93.96 E.00843
G1 X123.189 Y93.688 E.0115
G1 X123.352 Y93.343 E.01196
G1 X123.408 Y92.966 E.01195
G1 X123.352 Y92.589 E.01196
G1 X123.189 Y92.244 E.01196
G1 X122.943 Y91.972 E.0115
G1 X122.719 Y91.822 E.00843
G1 X122.485 Y91.725 E.00797
G1 X122.236 Y91.676 E.00793
G1 X122.001 Y91.675 E.00739
G1 X122.001 Y86.325 E.16773
G1 X122.293 Y86.324 E.00917
G1 X122.634 Y86.239 E.011
G1 X122.936 Y86.058 E.01104
G1 X123.129 Y85.864 E.00857
G1 X123.309 Y85.563 E.01103
G1 X123.398 Y85.207 E.01149
G1 X123.38 Y84.841 E.01149
G1 X123.257 Y84.496 E.01149
G1 X123.039 Y84.202 E.01149
G1 X122.756 Y83.992 E.01103
G1 X122.517 Y83.893 E.00812
G1 X122.279 Y83.845 E.00763
G1 X122.001 Y83.844 E.00872
G1 X122.001 Y80.26 E.11239
M204 S1000
G1 X121.624 Y80.007 F10800
M204 S800
;TYPE:External perimeter
G1 F1200
G1 X121.739 Y79.912 E.0047
G1 X121.95 Y79.799 E.00747
G1 X122.284 Y79.717 E.01078
G1 X128.79 Y79.71 E.204
G1 X128.79 Y130.29 E1.58589
G1 X122.284 Y130.283 E.204
M73 Q1 S26
G1 X121.95 Y130.201 E.01078
G1 X121.739 Y130.088 E.00747
G1 X121.624 Y129.993 E.0047
G1 X121.624 Y125.887 E.12874
G1 X122.046 Y125.885 E.01325
G1 X122.259 Y125.842 E.0068
G1 X122.537 Y125.711 E.00964
G1 X122.709 Y125.569 E.00698
G1 X122.892 Y125.322 E.00964
G1 X122.977 Y125.117 E.00698
G1 X123.023 Y124.809 E.00975
G1 X122.986 Y124.536 E.00863
G1 X122.893 Y124.294 E.00812
G1 X122.709 Y124.045 E.00972
G1 X122.537 Y123.904 E.00698
G1 X122.259 Y123.772 E.00964
G1 X122.046 Y123.73 E.0068
G1 X121.624 Y123.727 E.01325
G1 X121.624 Y117.759 E.18712
G1 X122.153 Y117.757 E.01659
G1 X122.338 Y117.72 E.00594
G1 X122.519 Y117.645 E.00611
G1 X122.739 Y117.482 E.00859
G1 X122.865 Y117.327 E.00628
G1 X122.985 Y117.074 E.00875
G1 X123.026 Y116.793 E.00892
G1 X122.985 Y116.512 E.00892
G1 X122.863 Y116.254 E.00892
G1 X122.676 Y116.047 E.00875
G1 X122.514 Y115.939 E.00611
G1 X122.338 Y115.866 E.00595
G1 X122.153 Y115.829 E.00594
G1 X121.624 Y115.827 E.01659
G1 X121.624 Y109.767 E.18999
G1 X122.218 Y109.765 E.01865
G1 X122.391 Y109.731 E.00551
G1 X122.553 Y109.663 E.00552
G1 X122.704 Y109.562 E.00569
G1 X122.878 Y109.37 E.00811
G1 X122.991 Y109.132 E.00828
G1 X123.029 Y108.871 E.00828
G1 X122.991 Y108.61 E.00828
G1 X122.878 Y108.371 E.00828
G1 X122.704 Y108.179 E.00811
G1 X122.554 Y108.078 E.00569
G1 X122.391 Y108.011 E.00552
G1 X122.218 Y107.976 E.00551
G1 X121.624 Y107.974 E.01865
G1 X121.624 Y101.94 E.1892
G1 X122.11 Y101.937 E.01524
G1 X122.305 Y101.898 E.00625
G1 X122.49 Y101.822 E.00626
G1 X122.66 Y101.708 E.00643
G1 X122.857 Y101.49 E.00922
G1 X122.985 Y101.219 E.00939
G1 X123.029 Y100.923 E.00939
G1 X122.985 Y100.627 E.00939
G1 X122.857 Y100.356 E.00939
G1 X122.66 Y100.138 E.00922
G1 X122.49 Y100.024 E.00643
G1 X122.305 Y99.948 E.00626
G1 X122.11 Y99.909 E.00624
G1 X121.624 Y99.906 E.01524
G1 X121.624 Y93.881 E.1889
G1 X122.199 Y93.879 E.01803
G1 X122.374 Y93.844 E.00563
G1 X122.541 Y93.775 E.00564
G1 X122.694 Y93.672 E.0058
G1 X122.872 Y93.476 E.00829
G1 X122.987 Y93.232 E.00845
G1 X123.026 Y92.966 E.00845
G1 X122.987 Y92.699 E.00845
G1 X122.872 Y92.455 E.00845
G1 X122.694 Y92.259 E.00829
G1 X122.541 Y92.157 E.0058
G1 X122.374 Y92.088 E.00564
G1 X122.199 Y92.053 E.00563
G1 X121.624 Y92.05 E.01803
G1 X121.624 Y85.95 E.19128
G1 X122.246 Y85.947 E.01952
G1 X122.488 Y85.887 E.00781
G1 X122.702 Y85.758 E.00782
G1 X122.829 Y85.631 E.00565
G1 X122.957 Y85.417 E.00782
G1 X123.019 Y85.17 E.00798
G1 X123.006 Y84.916 E.00798
G1 X122.921 Y84.676 E.00798
G1 X122.769 Y84.471 E.00798
G1 X122.569 Y84.322 E.00782
G1 X122.407 Y84.255 E.00549
M73 Q2 S26
G1 X122.241 Y84.222 E.00532
G1 X121.624 Y84.22 E.01935
G1 X121.624 Y80.067 E.13023
M204 S1000
G1 X121.773 Y80.009 F10800
;WIPE_START
M73 P2 R26
G1 F8640
G1 X121.739 Y79.912 E-.04467
G1 X121.95 Y79.799 E-.05502
G1 X122.284 Y79.717 E-.07942
G1 X125.622 Y79.714 E-.77089
;WIPE_END
G1 E-.05 F2100
G1 Z.4 F720
G1 X127.923 Y81.348 F10800
G1 Z.2 F720
G1 E1 F2100
M204 S800
;TYPE:Solid infill
;WIDTH:0.423391
G1 F1200
G1 X127.324 Y80.749 E.02681
G1 X126.786 Y80.749 E.017
G1 X127.753 Y81.716 E.04326
G1 X127.753 Y82.254 E.01702
G1 X126.249 Y80.75 E.06731
G1 X125.711 Y80.75 E.017
G1 X127.753 Y82.792 E.09136
G1 X127.753 Y83.33 E.01702
G1 X125.174 Y80.751 E.11541
G1 X124.636 Y80.751 E.017
G1 X127.753 Y83.868 E.13946
G1 X127.753 Y84.407 E.01702
G1 X124.099 Y80.752 E.1635
G1 X123.561 Y80.753 E.017
G1 X127.753 Y84.945 E.18755
G1 X127.753 Y85.483 E.01702
G1 X123.024 Y80.753 E.2116
G1 X122.661 Y80.754 E.01148
G1 X122.661 Y80.928 E.00553
G1 X127.753 Y86.021 E.22784
G1 X127.753 Y86.559 E.01702
G1 X122.661 Y81.466 E.22784
G1 X122.661 Y82.004 E.01702
G1 X127.753 Y87.097 E.22784
G1 X127.753 Y87.635 E.01702
G1 X122.661 Y82.543 E.22784
G1 X122.661 Y83.081 E.01702
G1 X127.753 Y88.173 E.22784
G1 X127.753 Y88.711 E.01702
G1 X124.049 Y85.007 E.16571
G1 X124.062 Y85.272 E.0084
G1 X124.005 Y85.501 E.00746
G1 X127.753 Y89.249 E.16769
G1 X127.753 Y89.787 E.01702
G1 X123.872 Y85.907 E.17362
G1 X123.671 Y86.243 E.01241
G1 X127.753 Y90.325 E.18263
G1 X127.753 Y90.863 E.01702
G1 X123.408 Y86.518 E.1944
G1 X123.345 Y86.582 E.00283
G1 X123.088 Y86.736 E.00949
G1 X127.753 Y91.401 E.20873
G1 X127.753 Y91.939 E.01702
G1 X122.713 Y86.899 E.2255
G1 X122.661 Y86.912 E.00171
G1 X122.661 Y87.385 E.01495
G1 X127.753 Y92.478 E.22784
G1 X127.753 Y93.016 E.01702
G1 X122.661 Y87.923 E.22784
G1 X122.661 Y88.461 E.01702
G1 X127.753 Y93.554 E.22784
G1 X127.753 Y94.092 E.01702
G1 X122.661 Y88.999 E.22784
G1 X122.661 Y89.537 E.01702
G1 X127.753 Y94.63 E.22784
G1 X127.753 Y95.168 E.01702
G1 X122.661 Y90.075 E.22784
G1 X122.661 Y90.614 E.01702
G1 X127.753 Y95.706 E.22784
G1 X127.753 Y96.244 E.01702
G1 X124.005 Y92.496 E.16768
G1 X124.075 Y92.966 E.01502
G1 X124.057 Y93.086 E.00385
G1 X127.753 Y96.782 E.16537
G1 X127.753 Y97.32 E.01702
G1 X123.983 Y93.551 E.16865
G1 X123.811 Y93.916 E.01279
G1 X127.753 Y97.858 E.17638
G1 X127.753 Y98.396 E.01702
G1 X123.587 Y94.231 E.18637
G1 X123.377 Y94.463 E.0099
G1 X123.32 Y94.501 E.00219
G1 X127.753 Y98.934 E.19834
G1 X127.753 Y99.472 E.01702
G1 X122.991 Y94.711 E.21304
G1 X122.661 Y94.844 E.01128
G1 X122.661 Y94.918 E.00234
G1 X127.753 Y100.011 E.22784
G1 X127.753 Y100.549 E.01702
G1 X122.661 Y95.456 E.22784
G1 X122.661 Y95.994 E.01702
G1 X127.753 Y101.087 E.22784
G1 X127.753 Y101.625 E.01702
G1 X122.661 Y96.532 E.22784
G1 X122.661 Y97.07 E.01702
G1 X127.753 Y102.163 E.22784
G1 X127.753 Y102.701 E.01702
G1 X122.661 Y97.608 E.22784
G1 X122.661 Y98.146 E.01702
G1 X127.753 Y103.239 E.22784
G1 X127.753 Y103.777 E.01702
G1 X122.491 Y98.515 E.23543
M204 S1000
;WIPE_START
G1 F8640
G1 X125.4 Y101.424 E-.95
;WIPE_END
G1 E-.05 F2100
G1 Z.4 F720
G1 X123.827 Y100.389 F10800
G1 Z.2 F720
G1 E1 F2100
M204 S800
G1 F1200
G1 X127.753 Y104.315 E.17567
G1 X127.753 Y104.853 E.01702
G1 X124.045 Y101.145 E.16592
G1 X123.989 Y101.523 E.0121
G1 X123.955 Y101.593 E.00246
G1 X127.753 Y105.391 E.16991
G1 X127.753 Y105.929 E.01702
M73 Q3 S26
G1 X123.783 Y101.959 E.17764
G1 X123.729 Y102.072 E.00395
M73 P3 R26
G1 X123.553 Y102.267 E.00833
G1 X127.753 Y106.467 E.18793
G1 X127.753 Y107.005 E.01702
G1 X123.285 Y102.537 E.1999
G1 X122.959 Y102.75 E.0123
G1 X127.753 Y107.543 E.21448
G1 X127.753 Y108.082 E.01702
G1 X122.661 Y102.989 E.22784
G1 X122.661 Y103.527 E.01702
G1 X127.753 Y108.62 E.22784
G1 X127.753 Y109.158 E.01702
G1 X122.661 Y104.065 E.22784
G1 X122.661 Y104.603 E.01702
G1 X127.753 Y109.696 E.22784
G1 X127.753 Y110.234 E.01702
G1 X122.661 Y105.141 E.22784
G1 X122.661 Y105.679 E.01702
G1 X127.753 Y110.772 E.22784
G1 X127.753 Y111.31 E.01702
G1 X122.661 Y106.217 E.22784
G1 X122.661 Y106.756 E.01702
G1 X127.753 Y111.848 E.22784
G1 X127.753 Y112.386 E.01702
G1 X124.05 Y108.683 E.16569
G1 X124.078 Y108.871 E.00601
G1 X124.029 Y109.2 E.01053
G1 X127.753 Y112.924 E.16662
G1 X127.753 Y113.462 E.01702
G1 X123.908 Y109.617 E.17202
G1 X123.729 Y109.976 E.01269
G1 X127.753 Y114 E.18006
G1 X127.753 Y114.538 E.01702
G1 X123.473 Y110.258 E.19149
G1 X123.387 Y110.353 E.00404
G1 X123.173 Y110.496 E.00815
G1 X127.753 Y115.076 E.20492
G1 X127.753 Y115.614 E.01702
G1 X122.816 Y110.677 E.22091
G1 X122.661 Y110.734 E.00523
G1 X122.661 Y111.06 E.01031
G1 X127.753 Y116.153 E.22784
G1 X127.753 Y116.691 E.01702
G1 X122.661 Y111.598 E.22784
G1 X122.661 Y112.136 E.01702
G1 X127.753 Y117.229 E.22784
G1 X127.753 Y117.767 E.01702
G1 X122.661 Y112.674 E.22784
G1 X122.661 Y113.212 E.01702
G1 X127.753 Y118.305 E.22784
G1 X127.753 Y118.843 E.01702
G1 X122.661 Y113.75 E.22784
G1 X122.661 Y114.288 E.01702
G1 X127.753 Y119.381 E.22784
G1 X127.753 Y119.919 E.01702
G1 X123.94 Y116.106 E.1706
G1 X123.735 Y115.672 E.01517
G1 X123.359 Y115.257 E.01774
G1 X123.005 Y115.02 E.01345
G1 X122.747 Y114.913 E.00884
G1 X122.491 Y114.657 E.01147
M204 S1000
;WIPE_START
G1 F8640
G1 X122.747 Y114.913 E-.08369
G1 X123.005 Y115.02 E-.06454
G1 X123.359 Y115.257 E-.09816
G1 X123.735 Y115.672 E-.12951
G1 X123.94 Y116.106 E-.11069
G1 X125.359 Y117.525 E-.46341
;WIPE_END
G1 E-.05 F2100
G1 Z.4 F720
G1 X123.871 Y116.575 F10800
G1 Z.2 F720
G1 E1 F2100
M204 S800
