; generated by PrusaSlicer 2.4.2

; 

; external perimeters extrusion width = 0.45mm
; perimeters extrusion width = 0.45mm
; infill extrusion width = 0.45mm
; solid infill extrusion width = 0.45mm
; top infill extrusion width = 0.40mm
; first layer extrusion width = 0.42mm

M73 P0 R18
M73 Q0 S18
M201 X1000 Y1000 Z200 E5000 ; sets maximum accelerations, mm/sec^2
M203 X200 Y200 Z12 E120 ; sets maximum feedrates, mm / sec
M204 P1250 R1250 T1250 ; sets acceleration (P, T) and retract acceleration (R), mm/sec^2
M205 X8.00 Y8.00 Z0.40 E4.50 ; sets the jerk limits, mm/sec
M205 S0 T0 ; sets the minimum extruding and travel feed rate, mm/sec
M107
;TYPE:Custom
M862.3 P "MK3S" ; printer model check
M862.1 P0.4 ; nozzle diameter check
M115 U3.10.1 ; tell printer latest fw version
G90 ; use absolute coordinates
M83 ; extruder relative mode
M104 S230 ; set extruder temp
M140 S85 ; set bed temp
M190 S85 ; wait for bed temp
M109 S230 ; wait for extruder temp
G28 W ; home all without mesh bed level
G80 ; mesh bed leveling
G1 Z0.2 F720
G1 Y-3 F1000 ; go outside print area
G92 E0
G1 X60 E9 F1000 ; intro line
G1 X100 E12.5 F1000 ; intro line
G92 E0
M221 S95

; Don't change E values below. Excessive value can damage the printer.
M907 E430 ; set extruder motor current
G21 ; set units to millimeters
G90 ; use absolute coordinates
M83 ; use relative distances for extrusion
M900 K0.08 ; Filament gcode LA 1.5
M900 K45 ; Filament gcode LA 1.0
M107
;LAYER_CHANGE
;Z:0.2
;HEIGHT:0.2
;BEFORE_LAYER_CHANGE
G92 E0.0
;0.2


G1 E-1 F2100
G1 Z.2 F720
;AFTER_LAYER_CHANGE
;0.2
G1 Z.4
G1 X121.615 Y65.193 F10800
G1 Z.2 F720
G1 E1 F2100
M204 S800
;TYPE:Skirt/Brim
;WIDTH:0.42
G1 F1200
G1 X122.66 Y64.317 E.04278
G1 X123.6 Y64.123 E.03008
G1 X126.4 Y64.123 E.08779
G1 X127.707 Y64.515 E.04278
G1 X128.583 Y65.56 E.04278
G1 X128.777 Y66.5 E.03008
G1 X128.777 Y143.5 E2.41428
G1 X128.385 Y144.807 E.04278
M73 P1 R18
M73 Q1 S18
G1 X127.34 Y145.683 E.04278
G1 X126.4 Y145.877 E.03008
G1 X123.6 Y145.877 E.08779
G1 X122.293 Y145.485 E.04278
G1 X121.417 Y144.44 E.04278
G1 X121.223 Y143.5 E.03008
G1 X121.223 Y66.5 E2.41428
G1 X121.597 Y65.25 E.0409
M204 S1000
; printing object saddle.stl id:0 copy 0
;WIPE_START
G1 F8640
G1 X122.66 Y64.317 E-.32671
G1 X123.6 Y64.123 E-.22155
G1 X125.34 Y64.123 E-.40174
;WIPE_END
G1 E-.05 F2100
G1 Z.4 F720
G1 X124.764 Y67.664 F10800
G1 Z.2 F720
G1 E1 F2100
M204 S800
;TYPE:Perimeter
G1 F1200
G1 X125.236 Y67.664 E.01479
G1 X125.236 Y142.336 E2.34128
G1 X124.764 Y142.336 E.01479
G1 X124.764 Y67.724 E2.3394
M204 S1000
G1 X124.387 Y67.287 F10800
M204 S800
M73 P2 R18
M73 Q2 S18
G1 F1200
G1 X125.613 Y67.287 E.03844
G1 X125.613 Y142.713 E2.36492
G1 X124.387 Y142.713 E.03844
G1 X124.387 Y67.347 E2.36304
M204 S1000
G1 X124.01 Y66.91 F10800
M204 S800
;TYPE:External perimeter
M73 P2 R17
G1 F1200
M73 Q2 S17
G1 X125.99 Y66.91 E.06208
G1 X125.99 Y143.09 E2.38857
G1 X124.01 Y143.09 E.06208
M73 P3 R17
M73 Q3 S17
G1 X124.01 Y66.97 E2.38669
M204 S1000
G1 X124.358 Y67.107 F10800
;WIPE_START
G1 F8640
G1 X125.99 Y66.91 E-.4574
G1 X125.99 Y69.043 E-.4926
;WIPE_END
G1 E-.05 F2100
G1 Z.4 F720
G1 X125 Y67.853 F10800
G1 Z.2 F720
G1 E1 F2100
M204 S800
;TYPE:Gap fill
;WIDTH:0.137528
G1 F1200
G1 X125 Y142.147 E.58445
M204 S1000
; stop printing object saddle.stl id:0 copy 0
;LAYER_CHANGE
;Z:0.3
;HEIGHT:0.1
;BEFORE_LAYER_CHANGE
G92 E0.0
;0.3


;WIPE_START
G1 F8640
G1 X125 Y138.033 E-.95
;WIPE_END
G1 E-.05 F2100
G1 Z.4 F720
;AFTER_LAYER_CHANGE
;0.3
M104 S240 ; set temperature
M140 S90 ; set bed temperature
G1 X128.777 Y138.033 F10800
G1 Z.3 F720
G1 E1 F2100
;TYPE:Skirt/Brim
;WIDTH:0.42
G1 F3000
G1 X128.777 Y143.5 E.09058
G1 X128.385 Y144.807 E.02261
G1 X127.34 Y145.683 E.02261
G1 X126.4 Y145.877 E.0159
G1 X123.6 Y145.877 E.04639
G1 X122.293 Y145.485 E.02261
G1 X121.417 Y144.44 E.02261
G1 X121.223 Y143.5 E.0159
G1 X121.223 Y66.5 E1.27584
G1 X121.615 Y65.193 E.02261
M73 P4 R17
M73 Q4 S17
G1 X122.66 Y64.317 E.02261
G1 X123.6 Y64.123 E.0159
G1 X126.4 Y64.123 E.04639
G1 X127.707 Y64.515 E.02261
G1 X128.583 Y65.56 E.02261
G1 X128.777 Y66.5 E.0159
G1 X128.777 Y137.973 E1.18426
; printing object saddle.stl id:0 copy 0
;WIPE_START
G1 F8640
G1 X128.777 Y142.087 E-.95
;WIPE_END
G1 E-.05 F2100
G1 Z.5 F720
G1 X125.318 Y142.418 F10800
G1 Z.3 F720
G1 E1 F2100
M204 S600
;TYPE:Perimeter
;WIDTH:0.45
G1 F2700
G1 X124.682 Y142.418 E.01133
G1 X124.682 Y67.582 E1.33332
G1 X125.318 Y67.582 E.01133
G1 X125.318 Y142.358 E1.33225
M204 S1000
G1 X125.746 Y142.846 F10800
M204 S600
G1 F2700
G1 X124.254 Y142.846 E.0266
G1 X124.254 Y67.154 E1.34859
G1 X125.746 Y67.154 E.0266
G1 X125.746 Y142.786 E1.34752
M204 S1000
G1 X126.175 Y143.275 F10800
M204 S600
;TYPE:External perimeter
G1 F1500
G1 X123.825 Y143.275 E.04187
G1 X123.825 Y66.725 E1.36386
G1 X126.175 Y66.725 E.04187
M73 P5 R17
M73 Q5 S17
G1 X126.175 Y143.215 E1.36279
M204 S1000
G1 X125.827 Y143.079 F10800
;WIPE_START
G1 F8640
G1 X123.825 Y143.275 E-.5428
G1 X123.825 Y141.511 E-.4072
;WIPE_END
G1 E-.05 F2100
G1 Z.5 F720
G1 X125 Y142.204 F10800
G1 Z.3 F720
G1 E1 F2100
;TYPE:Gap fill
;WIDTH:0.228768
G1 F2400
G1 X125 Y67.796 E.64131
; stop printing object saddle.stl id:0 copy 0
;LAYER_CHANGE
;Z:0.4
;HEIGHT:0.1
;BEFORE_LAYER_CHANGE
G92 E0.0
;0.4


;WIPE_START
G1 F8640
G1 X125 Y71.911 E-.95
;WIPE_END
G1 E-.05 F2100
G1 Z.5 F720
;AFTER_LAYER_CHANGE
;0.4
G1 X128.777 Y71.911 F10800
G1 Z.4 F720
G1 E1 F2100
;TYPE:Skirt/Brim
;WIDTH:0.42
G1 F3000
G1 X128.777 Y143.5 E1.18619
G1 X128.385 Y144.807 E.02261
G1 X127.34 Y145.683 E.02261
G1 X126.4 Y145.877 E.0159
G1 X123.6 Y145.877 E.04639
G1 X122.293 Y145.485 E.02261
G1 X121.417 Y144.44 E.02261
G1 X121.223 Y143.5 E.0159
G1 X121.223 Y66.5 E1.27584
G1 X121.615 Y65.193 E.02261
M73 P6 R17
M73 Q6 S17
G1 X122.66 Y64.317 E.02261
G1 X123.6 Y64.123 E.0159
G1 X126.4 Y64.123 E.04639
G1 X127.707 Y64.515 E.02261
G1 X128.583 Y65.56 E.02261
G1 X128.777 Y66.5 E.0159
G1 X128.777 Y71.851 E.08866
; printing object saddle.stl id:0 copy 0
;WIPE_START
G1 F8640
G1 X128.777 Y75.965 E-.95
;WIPE_END
G1 E-.05 F2100
G1 Z.6 F720
G1 X125.318 Y67.582 F10800
G1 Z.4 F720
G1 E1 F2100
M204 S600
;TYPE:Perimeter
;WIDTH:0.45
G1 F2700
G1 X125.318 Y142.418 E1.33332
G1 X124.682 Y142.418 E.01133
G1 X124.682 Y67.582 E1.33332
G1 X125.258 Y67.582 E.01026
M204 S1000
G1 X125.746 Y67.154 F10800
M204 S600
G1 F2700
G1 X125.746 Y142.846 E1.34859
G1 X124.254 Y142.846 E.0266
G1 X124.254 Y67.154 E1.34859
G1 X125.686 Y67.154 E.02553
M204 S1000
G1 X126.175 Y66.725 F10800
M204 S600
;TYPE:External perimeter
G1 F1500
G1 X126.175 Y143.275 E1.36386
G1 X123.825 Y143.275 E.04187
M73 P7 R17
M73 Q7 S17
G1 X123.825 Y66.725 E1.36386
G1 X126.115 Y66.725 E.0408
M204 S1000
G1 X126.171 Y67.125 F10800
;WIPE_START
G1 F8640
G1 X126.118 Y70.839 E-.95
;WIPE_END
G1 E-.05 F2100
G1 Z.6 F720
G1 X125 Y67.796 F10800
G1 Z.4 F720
G1 E1 F2100
;TYPE:Gap fill
;WIDTH:0.228768
G1 F2400
G1 X125 Y142.204 E.64131
; stop printing object saddle.stl id:0 copy 0
M106 S63.75
;LAYER_CHANGE
;Z:0.5
;HEIGHT:0.1
;BEFORE_LAYER_CHANGE
G92 E0.0
;0.5


;WIPE_START
G1 F8640
G1 X125 Y138.089 E-.95
;WIPE_END
G1 E-.05 F2100
G1 Z.6 F720
;AFTER_LAYER_CHANGE
;0.5
; printing object saddle.stl id:0 copy 0
G1 X124.682 Y142.418 F10800
G1 Z.5 F720
G1 E1 F2100
M204 S600
;TYPE:Perimeter
;WIDTH:0.45
G1 F2700
G1 X124.682 Y67.582 E1.33332
G1 X125.318 Y67.582 E.01133
G1 X125.318 Y142.418 E1.33332
G1 X124.742 Y142.418 E.01026
M204 S1000
G1 X124.254 Y142.846 F10800
M204 S600
G1 F2700
G1 X124.254 Y67.154 E1.34859
G1 X125.746 Y67.154 E.0266
M73 P8 R16
M73 Q8 S17
G1 X125.746 Y142.846 E1.34859
G1 X124.314 Y142.846 E.02553
M204 S1000
M73 Q8 S16
G1 X123.825 Y143.275 F10800
M204 S600
;TYPE:External perimeter
G1 F1500
G1 X123.825 Y66.725 E1.36386
G1 X126.175 Y66.725 E.04187
G1 X126.175 Y143.275 E1.36386
G1 X123.885 Y143.275 E.0408
M204 S1000
G1 X123.829 Y142.875 F10800
;WIPE_START
G1 F8640
G1 X123.882 Y139.161 E-.95
;WIPE_END
G1 E-.05 F2100
G1 Z.7 F720
G1 X125 Y142.204 F10800
G1 Z.5 F720
G1 E1 F2100
;TYPE:Gap fill
;WIDTH:0.228768
G1 F2400
G1 X125 Y67.796 E.64131
; stop printing object saddle.stl id:0 copy 0
M106 S122.4
;LAYER_CHANGE
;Z:0.6
;HEIGHT:0.1
;BEFORE_LAYER_CHANGE
G92 E0.0
;0.6


;WIPE_START
G1 F8640
M73 P9 R16
M73 Q9 S16
G1 X125 Y71.911 E-.95
;WIPE_END
G1 E-.05 F2100
G1 Z.7 F720
;AFTER_LAYER_CHANGE
;0.6
; printing object saddle.stl id:0 copy 0
G1 X124.682 Y67.582 F10800
G1 Z.6 F720
G1 E1 F2100
M204 S600
;TYPE:Perimeter
;WIDTH:0.45
G1 F2700
G1 X125.318 Y67.582 E.01133
G1 X125.318 Y142.418 E1.33332
G1 X124.682 Y142.418 E.01133
G1 X124.682 Y67.642 E1.33225
M204 S1000
G1 X124.254 Y67.154 F10800
M204 S600
G1 F2700
G1 X125.746 Y67.154 E.0266
G1 X125.746 Y142.846 E1.34859
G1 X124.254 Y142.846 E.0266
G1 X124.254 Y67.214 E1.34752
M204 S1000
G1 X123.825 Y66.725 F10800
M204 S600
;TYPE:External perimeter
G1 F1500
G1 X126.175 Y66.725 E.04187
G1 X126.175 Y143.275 E1.36386
G1 X123.825 Y143.275 E.04187
M73 P10 R16
M73 Q10 S16
G1 X123.825 Y66.785 E1.36279
M204 S1000
G1 X124.173 Y66.921 F10800
;WIPE_START
G1 F8640
G1 X126.175 Y66.725 E-.5428
G1 X126.175 Y68.489 E-.4072
;WIPE_END
G1 E-.05 F2100
G1 Z.8 F720
G1 X125 Y67.796 F10800
G1 Z.6 F720
G1 E1 F2100
;TYPE:Gap fill
;WIDTH:0.228768
G1 F2400
G1 X125 Y142.204 E.64131
; stop printing object saddle.stl id:0 copy 0
M106 S124.95
;LAYER_CHANGE
;Z:0.7
;HEIGHT:0.1
;BEFORE_LAYER_CHANGE
G92 E0.0
;0.7


;WIPE_START
G1 F8640
G1 X125 Y138.089 E-.95
;WIPE_END
G1 E-.05 F2100
G1 Z.8 F720
;AFTER_LAYER_CHANGE
;0.7
; printing object saddle.stl id:0 copy 0
G1 X124.682 Y142.418 F10800
G1 Z.7 F720
G1 E1 F2100
M204 S600
;TYPE:Perimeter
;WIDTH:0.45
G1 F2700
G1 X124.682 Y67.582 E1.33332
G1 X125.318 Y67.582 E.01133
G1 X125.318 Y142.418 E1.33332
G1 X124.742 Y142.418 E.01026
M204 S1000
G1 X124.254 Y142.846 F10800
M204 S600
G1 F2700
G1 X124.254 Y67.154 E1.34859
G1 X125.746 Y67.154 E.0266
M73 P11 R16
M73 Q11 S16
G1 X125.746 Y142.846 E1.34859
G1 X124.314 Y142.846 E.02553
M204 S1000
G1 X123.825 Y143.275 F10800
M204 S600
;TYPE:External perimeter
G1 F1500
G1 X123.825 Y66.725 E1.36386
G1 X126.175 Y66.725 E.04187
G1 X126.175 Y143.275 E1.36386
G1 X123.885 Y143.275 E.0408
M204 S1000
G1 X123.829 Y142.875 F10800
;WIPE_START
G1 F8640
G1 X123.882 Y139.161 E-.95
;WIPE_END
G1 E-.05 F2100
G1 Z.9 F720
G1 X125 Y142.204 F10800
G1 Z.7 F720
G1 E1 F2100
;TYPE:Gap fill
;WIDTH:0.228768
G1 F2400
G1 X125 Y67.796 E.64131
; stop printing object saddle.stl id:0 copy 0
M106 S122.4
;LAYER_CHANGE
;Z:0.8
;HEIGHT:0.1
;BEFORE_LAYER_CHANGE
G92 E0.0
;0.8


;WIPE_START
G1 F8640
G1 X125 Y71.911 E-.95
;WIPE_END
G1 E-.05 F2100
M73 P12 R16
G1 Z.9 F720
;AFTER_LAYER_CHANGE
;0.8
; printing object saddle.stl id:0 copy 0
G1 X124.682 Y67.582 F10800
G1 Z.8 F720
M73 Q12 S16
G1 E1 F2100
M204 S600
;TYPE:Perimeter
;WIDTH:0.45
G1 F2700
G1 X125.318 Y67.582 E.01133
G1 X125.318 Y142.418 E1.33332
G1 X124.682 Y142.418 E.01133
G1 X124.682 Y67.642 E1.33225
M204 S1000
G1 X124.254 Y67.154 F10800
M204 S600
G1 F2700
G1 X125.746 Y67.154 E.0266
G1 X125.746 Y142.846 E1.34859
G1 X124.254 Y142.846 E.0266
G1 X124.254 Y67.214 E1.34752
M204 S1000
G1 X123.825 Y66.725 F10800
M204 S600
;TYPE:External perimeter
G1 F1500
G1 X126.175 Y66.725 E.04187
G1 X126.175 Y143.275 E1.36386
G1 X123.825 Y143.275 E.04187
G1 X123.825 Y66.785 E1.36279
M204 S1000
G1 X124.173 Y66.921 F10800
;WIPE_START
M73 P13 R16
M73 Q13 S16
G1 F8640
G1 X126.175 Y66.725 E-.5428
G1 X126.175 Y68.489 E-.4072
;WIPE_END
G1 E-.05 F2100
G1 Z1 F720
G1 X125 Y67.796 F10800
G1 Z.8 F720
G1 E1 F2100
;TYPE:Gap fill
;WIDTH:0.228768
G1 F2400
G1 X125 Y142.204 E.64131
; stop printing object saddle.stl id:0 copy 0
M106 S124.95
;LAYER_CHANGE
;Z:0.9
;HEIGHT:0.1
;BEFORE_LAYER_CHANGE
G92 E0.0
;0.9


;WIPE_START
G1 F8640
M73 P13 R15
G1 X125 Y138.089 E-.95
;WIPE_END
G1 E-.05 F2100
G1 Z1 F720
;AFTER_LAYER_CHANGE
;0.9
; printing object saddle.stl id:0 copy 0
G1 X124.682 Y142.418 F10800
G1 Z.9 F720
G1 E1 F2100
M204 S600
;TYPE:Perimeter
;WIDTH:0.45
G1 F2700
G1 X124.682 Y67.582 E1.33332
G1 X125.318 Y67.582 E.01133
G1 X125.318 Y142.418 E1.33332
G1 X124.742 Y142.418 E.01026
M204 S1000
M73 Q13 S15
G1 X124.254 Y142.846 F10800
M204 S600
G1 F2700
G1 X124.254 Y67.154 E1.34859
G1 X125.746 Y67.154 E.0266
G1 X125.746 Y142.846 E1.34859
G1 X124.314 Y142.846 E.02553
M204 S1000
M73 P14 R15
M73 Q14 S15
G1 X123.825 Y143.275 F10800
M204 S600
;TYPE:External perimeter
G1 F1500
G1 X123.825 Y66.725 E1.36386
G1 X126.175 Y66.725 E.04187
G1 X126.175 Y143.275 E1.36386
G1 X123.885 Y143.275 E.0408
M204 S1000
G1 X123.829 Y142.875 F10800
;WIPE_START
G1 F8640
G1 X123.882 Y139.161 E-.95
;WIPE_END
G1 E-.05 F2100
G1 Z1.1 F720
G1 X125 Y142.204 F10800
G1 Z.9 F720
G1 E1 F2100
;TYPE:Gap fill
;WIDTH:0.228768
G1 F2400
G1 X125 Y67.796 E.64131
; stop printing object saddle.stl id:0 copy 0
M106 S122.4
;LAYER_CHANGE
;Z:1
;HEIGHT:0.1
;BEFORE_LAYER_CHANGE
G92 E0.0
;1


;WIPE_START
G1 F8640
G1 X125 Y71.911 E-.95
;WIPE_END
G1 E-.05 F2100
G1 Z1.1 F720
;AFTER_LAYER_CHANGE
;1
; printing object saddle.stl id:0 copy 0
G1 X124.682 Y67.582 F10800
G1 Z1 F720
G1 E1 F2100
M204 S600
;TYPE:Perimeter
;WIDTH:0.45
G1 F2700
G1 X125.318 Y67.582 E.01133
G1 X125.318 Y142.418 E1.33332
G1 X124.682 Y142.418 E.01133
M73 P15 R15
M73 Q15 S15
G1 X124.682 Y67.642 E1.33225
M204 S1000
G1 X124.254 Y67.154 F10800
M204 S600
G1 F2700
G1 X125.746 Y67.154 E.0266
G1 X125.746 Y142.846 E1.34859
G1 X124.254 Y142.846 E.0266
G1 X124.254 Y67.214 E1.34752
M204 S1000
G1 X123.825 Y66.725 F10800
M204 S600
;TYPE:External perimeter
G1 F1500
G1 X126.175 Y66.725 E.04187
G1 X126.175 Y143.275 E1.36386
G1 X123.825 Y143.275 E.04187
G1 X123.825 Y66.785 E1.36279
M204 S1000
G1 X124.173 Y66.921 F10800
;WIPE_START
M73 P16 R15
M73 Q16 S15
G1 F8640
G1 X126.175 Y66.725 E-.5428
G1 X126.175 Y68.489 E-.4072
;WIPE_END
G1 E-.05 F2100
G1 Z1.2 F720
G1 X125 Y67.796 F10800
G1 Z1 F720
G1 E1 F2100
;TYPE:Gap fill
;WIDTH:0.228768
G1 F2400
G1 X125 Y142.204 E.64131
; stop printing object saddle.stl id:0 copy 0
M106 S124.95
;LAYER_CHANGE
;Z:1.1
;HEIGHT:0.1
;BEFORE_LAYER_CHANGE
G92 E0.0
;1.1


;WIPE_START
G1 F8640
G1 X125 Y138.089 E-.95
;WIPE_END
G1 E-.05 F2100
G1 Z1.2 F720
;AFTER_LAYER_CHANGE
;1.1
; printing object saddle.stl id:0 copy 0
G1 X124.682 Y142.418 F10800
G1 Z1.1 F720
G1 E1 F2100
M204 S600
;TYPE:Perimeter
;WIDTH:0.45
G1 F2700
G1 X124.682 Y67.582 E1.33332
G1 X125.318 Y67.582 E.01133
G1 X125.318 Y142.418 E1.33332
G1 X124.742 Y142.418 E.01026
M204 S1000
G1 X124.254 Y142.846 F10800
M204 S600
G1 F2700
G1 X124.254 Y67.154 E1.34859
G1 X125.746 Y67.154 E.0266
G1 X125.746 Y142.846 E1.34859
G1 X124.314 Y142.846 E.02553
M204 S1000
M73 P17 R15
M73 Q17 S15
G1 X123.825 Y143.275 F10800
M204 S600
;TYPE:External perimeter
G1 F1500
G1 X123.825 Y66.725 E1.36386
G1 X126.175 Y66.725 E.04187
G1 X126.175 Y143.275 E1.36386
G1 X123.885 Y143.275 E.0408
M204 S1000
G1 X123.829 Y142.875 F10800
;WIPE_START
G1 F8640
G1 X123.882 Y139.161 E-.95
;WIPE_END
G1 E-.05 F2100
G1 Z1.3 F720
G1 X125 Y142.204 F10800
G1 Z1.1 F720
G1 E1 F2100
;TYPE:Gap fill
;WIDTH:0.228768
G1 F2400
G1 X125 Y67.796 E.64131
; stop printing object saddle.stl id:0 copy 0
M106 S122.4
;LAYER_CHANGE
;Z:1.2
;HEIGHT:0.1
;BEFORE_LAYER_CHANGE
G92 E0.0
;1.2


;WIPE_START
G1 F8640
G1 X125 Y71.911 E-.95
;WIPE_END
G1 E-.05 F2100
G1 Z1.3 F720
;AFTER_LAYER_CHANGE
;1.2
; printing object saddle.stl id:0 copy 0
G1 X124.682 Y67.582 F10800
G1 Z1.2 F720
G1 E1 F2100
M204 S600
;TYPE:Perimeter
;WIDTH:0.45
G1 F2700
G1 X125.318 Y67.582 E.01133
G1 X125.318 Y142.418 E1.33332
G1 X124.682 Y142.418 E.01133
M73 P18 R15
M73 Q18 S15
G1 X124.682 Y67.642 E1.33225
M204 S1000
G1 X124.254 Y67.154 F10800
M204 S600
G1 F2700
G1 X125.746 Y67.154 E.0266
G1 X125.746 Y142.846 E1.34859
G1 X124.254 Y142.846 E.0266
G1 X124.254 Y67.214 E1.34752
M204 S1000
G1 X123.825 Y66.725 F10800
M204 S600
;TYPE:External perimeter
G1 F1500
G1 X126.175 Y66.725 E.04187
G1 X126.175 Y143.275 E1.36386
G1 X123.825 Y143.275 E.04187
M73 P18 R14
G1 X123.825 Y66.785 E1.36279
M204 S1000
G1 X124.173 Y66.921 F10800
;WIPE_START
M73 P19 R14
M73 Q19 S14
G1 F8640
G1 X126.175 Y66.725 E-.5428
G1 X126.175 Y68.489 E-.4072
;WIPE_END
G1 E-.05 F2100
G1 Z1.4 F720
G1 X125 Y67.796 F10800
G1 Z1.2 F720
G1 E1 F2100
